X:1
T:Isn't it Grand, Boys
M:3/4
L:1/4
K:C
 G G G| E3| C3/2 z/2 c| c2 c| A3| F3| F G A| G3| E3/2 z/2 E/2E/2| E D C|\
 D2 G| G G A| E3| C3| A A A| F G A| G3-| G3/2 z/2 G| A A A| F G A|\
 G A G| E2 G| G A G| F E D| C3|
